X:59
T:First of May.  WHL.[059]
T:Gilderoy,aka. WHL.[059]
B:W.H.Lister MS, East Boldon, c1850
Z:Village Music Project 2017 Mike Hicken
N: No time signature in Ms.
N: The key signature is clear. It looks like three sharps for A
N: but there are accidentals on the some of the Cs and the G's should all be naturals.
N: It makes sense in A mixolydian
M:4/4
L:1/8
Q:1/4=120
K:Amix
"^NB key sig A maj in MS"A2|(EA)(AB) =cBcA|dcdf g2fg|afge dfed|cAGF GGA2|
EAAB cBcA|dcdf g2 fg|afge dfed|c2A2A2||
fg|agfa gfed|cdef a2 fg|afge dfec|fdAF G2 AG|
EAAB =cBcA|dcdf g2 fg|afge dfed|c2A2A2 |]

